X:2003
T:Köra
T:(DAL Ingemar Ingers)
T:"En Annan Köra"
T:efter Lars Lundin, Åkarp
R:Köra
B:Dialekt- och Ortnamnarkivet Lund
O:Åkarp, Skåne
Z:Åke Persson 2011-05-13
M:2/4
L:1/8
K:D
A,2 |: A,/B,/C/D/ E/F/G/A/ | BA F2 | FE B,2 | ED A,2 | A,/B,/C/D/ E/F/G/A/ | BA F2 | FE B,C |1 D2 A,2 :|2 D2 C2 ||
K:A
|: E2 C (3A/G/F/ | E2 C2 | DD B,/D/F/A/ | c2 A2 | E2 C (3A/G/F/ | E2 C2 | DD B,/D/F/G/ |1 A2 C2 :|2 A2 z2 ||
(:musicend:)
(:music:)
